logos/woocommerce-icon.svg

<?xml version="1.0" encoding="UTF-8"?>
<svg width="256px" height="153px" viewBox="0 0 256 153" version="1.1" xmlns="http://www.w3.org/2000/svg" xmlns:xlink="http://www.w3.org/1999/xlink" preserveAspectRatio="xMidYMid">
    <g fill-rule="evenodd">
        <path d="M232.137523,0 L23.7592719,0 C10.5720702,0 -0.103257595,10.7799647 0.000639559736,23.862498 L0.000639559736,103.404247 C0.000639559736,116.591115 10.6767385,127.266612 23.8639402,127.266612 L122.558181,127.266612 L167.667206,152.384995 L157.410382,127.266612 L232.137523,127.266612 C245.325059,127.266612 255.999888,116.591115 255.999888,103.404247 L255.999888,23.862498 C255.999888,10.6752964 245.325059,0 232.137523,0 Z M19.3640061,18.4201481 C16.4334946,18.6294847 14.2355942,19.6761007 12.7703719,21.6645976 C11.3051496,23.5484931 10.781875,25.9556632 11.095813,28.6768382 C17.2707741,67.9247058 23.027062,94.4034429 28.3647436,108.113986 C30.4579757,113.137395 32.8651458,115.5451 35.690989,115.335764 C40.086656,115.021425 45.3196694,108.951332 51.4946305,97.1248185 C54.73908,90.4260478 59.7628237,80.3792294 66.5657276,66.9823567 C72.2170797,86.762992 79.9618646,101.625221 89.6956814,111.567705 C92.417057,114.393415 95.2427665,115.649434 97.9634733,115.440098 C100.371178,115.230761 102.254539,113.974742 103.510558,111.672039 C104.557241,109.683676 104.975914,107.380974 104.766578,104.764601 C104.138568,95.2407893 105.080917,81.9489193 107.69729,64.8892584 C110.417997,47.3063898 113.767382,34.6424627 117.849111,27.1069476 C118.686458,25.5370569 119.000128,23.9670994 118.895794,22.0832708 C118.686458,19.6760338 117.639775,17.6875369 115.651411,16.1176463 C113.663048,14.5477557 111.46468,13.8151445 109.057643,14.0244142 C106.022597,14.2337508 103.719895,15.6989731 102.150205,18.6294847 C95.6614396,30.4560654 91.0560348,49.6088916 88.335328,76.1924977 C84.3579328,66.145211 81.0085475,54.3185634 78.3921746,40.3987506 C77.2411578,34.2238564 74.4154483,31.2933449 69.8100434,31.6073497 C66.670329,31.8166194 64.0538892,33.9098515 61.9606572,37.8869122 L39.0401069,81.5302462 C35.2723159,66.3544807 31.7138615,47.8296643 28.4694119,25.9556632 C27.7368007,20.5133802 24.7016209,18.0014749 19.3640061,18.4201481 Z M221.044022,25.9559976 C228.475136,27.5259551 234.022221,31.5030159 237.789611,38.0965832 C241.138996,43.7482697 242.81302,50.5511737 242.81302,58.7146317 C242.81302,69.4943957 240.092314,79.3325464 234.649562,88.3333508 C228.370134,98.7995112 220.206676,104.032257 210.054854,104.032257 C208.275828,104.032257 206.391799,103.82292 204.402767,103.404247 C196.972321,101.834557 191.425236,97.857831 187.657177,91.264063 C184.308461,85.5076413 182.633768,78.6002028 182.633768,70.5410787 C182.633768,59.7612478 185.355144,49.923164 190.797226,41.0270948 C197.181658,30.5610681 205.345116,25.3280548 215.392603,25.3280548 C217.171629,25.3280548 219.055659,25.5373913 221.044022,25.9559976 Z M216.648622,82.5769291 C220.521015,79.1232099 223.137388,73.9947979 224.602744,67.0873594 C225.021417,64.6802562 225.335087,62.0637496 225.335087,59.3425746 C225.335087,56.3074616 224.707078,53.0630121 223.451058,49.8184957 C221.881368,45.7367667 219.788002,43.5389332 217.275963,43.0155917 C213.508574,42.2829805 209.845518,44.3762126 206.391799,49.5045577 C203.566089,53.4816184 201.786394,57.6680157 200.844713,61.9590813 C200.321038,64.3663182 200.111701,66.9830255 200.111701,69.5993984 C200.111701,72.6344445 200.739711,75.8788272 201.99573,79.1232099 C203.566089,83.2049389 205.658786,85.4026386 208.170825,85.9263145 C210.787198,86.4493215 213.612908,85.2983047 216.648622,82.5769291 Z M172.167608,38.0965832 C168.399549,31.5030159 162.74813,27.5259551 155.422019,25.9559976 C153.432987,25.5373913 151.549626,25.3280548 149.769931,25.3280548 C139.723112,25.3280548 131.559654,30.5610681 125.175223,41.0270948 C119.732472,49.923164 117.011765,59.7612478 117.011765,70.5410787 C117.011765,78.6002028 118.686458,85.5076413 122.035174,91.264063 C125.803233,97.857831 131.350318,101.834557 138.780763,103.404247 C140.769126,103.82292 142.653156,104.032257 144.432851,104.032257 C154.584672,104.032257 162.74813,98.7995112 169.027559,88.3333508 C174.47031,79.3325464 177.191017,69.4943957 177.191017,58.7146317 C177.191017,50.5511737 175.516324,43.7482697 172.167608,38.0965832 Z M158.980072,67.0873594 C157.515384,73.9947979 154.898343,79.1232099 151.02595,82.5769291 C147.990904,85.2983047 145.165195,86.4493215 142.548822,85.9263145 C140.036783,85.4026386 137.943417,83.2049389 136.373727,79.1232099 C135.117707,75.8788272 134.489698,72.6344445 134.489698,69.5993984 C134.489698,66.9830255 134.699034,64.3663182 135.22271,61.9590813 C136.16439,57.6680157 137.943417,53.4816184 140.769126,49.5045577 C144.223514,44.3762126 147.88657,42.2829805 151.65396,43.0155917 C154.165999,43.5389332 156.259365,45.7367667 157.829055,49.8184957 C159.085074,53.0630121 159.713084,56.3074616 159.713084,59.3425746 C159.713084,62.0637496 159.503748,64.6802562 158.980072,67.0873594 Z" fill="#7F54B3"></path>
    </g>
</svg>

<svg width="256" height="153" xmlns="http://www.w3.org/2000/svg" preserveAspectRatio="xMidYMid">
	<path d="M232.138 0H23.759C10.572 0-.103 10.78.001 23.862v79.542c0 13.187 10.676 23.863 23.863 23.863h98.694l45.11 25.118-10.258-25.118h74.728c13.187 0 23.862-10.676 23.862-23.863V23.862C256 10.675 245.325 0 232.138 0ZM19.364 18.42c-2.93.21-5.128 1.256-6.594 3.245-1.465 1.883-1.988 4.29-1.674 7.012 6.175 39.248 11.931 65.726 17.269 79.437 2.093 5.023 4.5 7.431 7.326 7.222 4.396-.315 9.629-6.385 15.804-18.211 3.244-6.699 8.268-16.746 15.07-30.143 5.652 19.781 13.397 34.643 23.13 44.586 2.722 2.825 5.548 4.081 8.268 3.872 2.408-.21 4.292-1.465 5.548-3.768 1.046-1.988 1.465-4.291 1.256-6.907-.628-9.524.314-22.816 2.93-39.876 2.721-17.583 6.07-30.247 10.152-37.782.837-1.57 1.151-3.14 1.047-5.024-.21-2.407-1.256-4.395-3.245-5.965-1.988-1.57-4.186-2.303-6.593-2.094-3.035.21-5.338 1.675-6.908 4.605-6.489 11.827-11.094 30.98-13.815 57.563C84.358 66.145 81.01 54.32 78.392 40.4c-1.15-6.175-3.977-9.106-8.582-8.792-3.14.21-5.756 2.303-7.85 6.28L39.04 81.53c-3.768-15.176-7.326-33.7-10.57-55.574-.733-5.443-3.768-7.955-9.106-7.536Zm201.68 7.536c7.431 1.57 12.978 5.547 16.746 12.14 3.349 5.652 5.023 12.455 5.023 20.619 0 10.78-2.72 20.618-8.163 29.618-6.28 10.467-14.443 15.7-24.595 15.7-1.78 0-3.663-.21-5.652-.629-7.43-1.57-12.978-5.546-16.746-12.14-3.349-5.756-5.023-12.664-5.023-20.723 0-10.78 2.721-20.618 8.163-29.514 6.385-10.466 14.548-15.699 24.596-15.699 1.779 0 3.663.21 5.651.628Zm-4.395 56.62c3.872-3.453 6.488-8.581 7.954-15.489.418-2.407.732-5.023.732-7.744 0-3.036-.628-6.28-1.884-9.525-1.57-4.081-3.663-6.28-6.175-6.802-3.767-.733-7.43 1.36-10.884 6.489-2.826 3.977-4.606 8.163-5.547 12.454-.524 2.407-.733 5.024-.733 7.64 0 3.035.628 6.28 1.884 9.524 1.57 4.082 3.663 6.28 6.175 6.803 2.616.523 5.442-.628 8.478-3.35Zm-44.481-44.48c-3.768-6.593-9.42-10.57-16.746-12.14-1.989-.419-3.872-.628-5.652-.628-10.047 0-18.21 5.233-24.595 15.7-5.443 8.895-8.163 18.733-8.163 29.513 0 8.06 1.674 14.967 5.023 20.723 3.768 6.594 9.315 10.57 16.746 12.14 1.988.419 3.872.628 5.652.628 10.152 0 18.315-5.232 24.595-15.699 5.442-9 8.163-18.839 8.163-29.618 0-8.164-1.675-14.967-5.023-20.618ZM158.98 67.088c-1.465 6.908-4.082 12.036-7.954 15.49-3.035 2.721-5.86 3.872-8.477 3.35-2.512-.524-4.606-2.722-6.175-6.804-1.256-3.244-1.884-6.489-1.884-9.524 0-2.616.209-5.233.733-7.64.941-4.291 2.72-8.477 5.546-12.454 3.455-5.129 7.118-7.222 10.885-6.49 2.512.524 4.605 2.722 6.175 6.803 1.256 3.245 1.884 6.49 1.884 9.525 0 2.72-.21 5.337-.733 7.744Z" fill="#7F54B3" fill-rule="evenodd"/>
</svg>
